X:21
T:Procession of the Faithless
R:march
Q:300
O:New Zealand
M:4/4
C:Mark Fitzsimons
K:D
A2d2d3e|fefg fed2|g3ef3d|c2d2e4|
f2a2a3f|gagf edcB|A3B cdeg|f2e2d4:|
a3f gfed|c2d2e4|eAfA gAfA|edcB AGFE|
D2AA EAA2|F2AAG3B|ABcd efga|gecAd4:|
K:dmin
"var2"
A2d2d3e|fefg fed2|g3ef3d|d=c^cde4|
f2a2a3f|gagf ed=c=B|^A3=B ^cdeg|f2e2d4:|
a3f gfed|d=c^cde4|eAfA gAfA|ed^c_B AGFE|
D2AA EAA2|F2AAG3B|A_B^cd efga|geA^cd4:|
W:
W:
W:Copyright Mark Fitzsimons March 2000
W:mark@greenmanhumming.com
